packages/components/Atoms/Icon/assets/img/rpl_icon_twitter.svg

<svg width="16" height="13" viewBox="0 0 16 13" overflow="visible" xmlns="http://www.w3.org/2000/svg">
  <path d="M14.3554 3.19C14.3655 3.32999 14.3655 3.47002 14.3655 3.61001C14.3655 7.88001 11.066 12.8 5.03555 12.8C3.17767 12.8 1.45179 12.27 0 11.3501C0.26397 11.38 0.517752 11.39 0.791878 11.39C2.32485 11.39 3.73605 10.8801 4.86296 10.0101C3.42133 9.98004 2.2132 9.05004 1.79694 7.77003C2.00001 7.80001 2.20304 7.82002 2.41626 7.82002C2.71067 7.82002 3.00511 7.78 3.2792 7.71004C1.77666 7.41001 0.649721 6.11002 0.649721 4.54001V4.50003C1.08625 4.74003 1.59391 4.89003 2.13195 4.91C1.24869 4.32999 0.670034 3.34 0.670034 2.21999C0.670034 1.61999 0.832441 1.06999 1.11672 0.589987C2.73095 2.54999 5.15736 3.82998 7.87816 3.97C7.82741 3.73 7.79694 3.48002 7.79694 3.23002C7.79694 1.44999 9.25888 0 11.0761 0C12.0203 0 12.8731 0.390001 13.4721 1.02C14.2132 0.88001 14.9238 0.609995 15.5533 0.240003C15.3096 0.990023 14.7919 1.62003 14.1117 2.02C14.7716 1.95003 15.4112 1.76999 16 1.52002C15.5534 2.15999 14.995 2.72997 14.3554 3.19Z"
    fill="inherit" />
</svg>

<svg width="16" height="13" overflow="visible" xmlns="http://www.w3.org/2000/svg"><path d="M14.355 3.19c.01.14.01.28.01.42 0 4.27-3.299 9.19-9.33 9.19A9.37 9.37 0 010 11.35c.264.03.518.04.792.04 1.533 0 2.944-.51 4.071-1.38-1.442-.03-2.65-.96-3.066-2.24.203.03.406.05.62.05.294 0 .588-.04.862-.11C1.777 7.41.65 6.11.65 4.54V4.5c.437.24.945.39 1.483.41A3.215 3.215 0 01.67 2.22c0-.6.162-1.15.447-1.63a9.369 9.369 0 006.761 3.38c-.05-.24-.081-.49-.081-.74 0-1.78 1.462-3.23 3.28-3.23.943 0 1.796.39 2.395 1.02a6.516 6.516 0 002.081-.78 3.23 3.23 0 01-1.441 1.78c.66-.07 1.3-.25 1.888-.5a6.992 6.992 0 01-1.645 1.67z" fill="inherit"/></svg>
